X: 27835
T: Mother And Child, The
R: reel
M: 4/4
K: Dmajor
|:{B}A2GE FDDF|EFGF EFGB|{B}A2GE FDDF|EFGE A3B:|
cA {B}AB cdeg|~fded cA{B}AB|cA {B}AB cdeg|~fd ec [1d2 ed:|2 d4||

